X:24
T:Con Cassidy's Reel +
B:NFID.153a
024con_c
N:I have removed the |A/B/=B/c/| anacrusis in part 1 of version 1.
S:CC
L:1/8
M:C
R:reel
Q:360
K:F
z2|CF (3FEF CFAF|cFdF cFA^c|dgfd cAFA|(3GFG AF GFDB,|
"5"CF (3FEF CFAF|cFdF cFA^c|dgfd cAFA|1 G^FGA =F2 :|2 G^FGA =F2||
%
FG|"9"Abag fgfd|caaa agfa|gagf efed|cggg g^fga|
"13"a=bag fgfd|caaa agfa|gagf efed|Aage (3fgf e^c|
%
"17"dd (3ddd dcA^c|dfeg fef^c|dgfd cAFA|(3G^FG A=F GFDB,|
"21"CF (3FEF CFAF|cFdF cFA^c|dgfd cAFA|G^FGA =F2||
= = =
P:simplified version in G
K:G
z2|DG~G2 DGBG|dGeG dGB^d|eage dBGB|(3AGA BG AGEC|
"5"DG~G2 DGBG|dGeG dGB^d|eage dBGB|1 A^GAB =G2:|2 A^GAB =G2||
%
GA|"9"B2ba gage|dbba bagb|abag fgfe|daag a^gab|
"13"b2ba gage|dbba bagb|abag fgfe|Bbaf g2f^d|
%
"17"e2ed edB^d|egfa gfg^d|eage dBGB|A2BG AGEC|
"21"DG~G2 DGBG|dGeG dGB^d|eage dBGB|A^GAB =G4|]
= = =
P:version in D
K:D
A,D (3DCD A,DFD|ADBD ADF^A|BedB AFDF|(3EDE FD EDB,G,|
A,D (3DCD A,DFD|ADBD ADF^A|BedB AFDF|1 E^DEF =D2 F/G/^G/A/:|\
[2 E^DEF =D2z2|:
%B
Fgfe dedB|Afff fedf|efed cdcB|Aeee e^def|
f^gfe dedB|Afff fedf|efed cdcB|Ffec (3ded c^A|
%C
BB (3BBB BAF^A|Bdce dcd^A|BedB AFDF|(3E^DE F=D EDB,G,|
A,D (3DCD A,DFD|ADBD ADF^A|BedB AFDF|E^DEF =D2z2|]

%%%

